X:1
T:Title
%%score { ( 1 3 ) | ( 2 4 ) }
L:1/8
M:4/4
K:F
V:1 treble nm="Grand Piano"
V:3 treble 
V:2 bass 
V:4 bass 
V:1
 z4 z2[Q:1/4=92] F>G | A>A c>c A>F A>c | [Fd]>[Fd] [DB]>[Fd] c2 A>B | c>c [Af]>d c>c B>A | %4
[M:9/8] [EG]>[_E^F][=EG]- [EG]/[=FA]/ [EG]2- [EG][Ec]>[EB] |[M:4/4] A>A A>B c<A A>c | %6
 [Fd]>[Fd] [Fd]>[Fd] c2 F>G |[M:35/32] A<cc>dc/ z2 FF/[FG]3/4 |[M:7/8] [FA]2 [EG]2 F3 | %9
[M:1/4] (3FFF |[M:4/4] (5:4:5[DB]2 [DB]/ [DB]/-[DB]3/2[DB]/ z2 (3[DB][DB][^CB] | %11
 z4 [CA]2- [CA]/4 z/4 z/ z | (3c/c/- c2 c3/2-c/4 z/4 (3c/A/- A2 z2 | %13
[M:3/4] (3:2:2A2 [FA] z z/ [EG]/- [EG]/4 z/4 z/ z |[M:1/4] (3FFF | %15
[M:4/4] (5:4:5[DB]2 [DB]/ [DB]/-[DB]3/2[DB]/ z2 (3[DB][DB][^CB] | z4 [CA]2- [CA]/4 z/4 z/ z | %17
 (3c/c/- c2 c3/2-c/4 z/4 (3c/A/- A2 z2 |[M:3/4] (3:2:2A2 [FA] z z/ [EG]/- [EG]/4 z/4 z/ z |] %19
V:2
 z4 z2 [F,A,C]>[F,B,C] | [G,CF]>[F,CF] [F,A,F]>[F,A,F] [F,CF]>[K:bass][F,C] [F,CF]>[F,A,F] | %2
 [B,,B,]>[B,,B,] [B,,F,]>[B,,B,][K:treble] [F,A,F]2 [F,CF]>[G,CE] | %3
 [A,CF]>[A,CF][K:bass] [F,C]>[F,B,F] [F,A,F]>[F,A,F] [F,DF]>[F,DF] | %4
[M:9/8] [C,C]>[C,C][C,C]- [C,C]/[C,C]/ [C,C]2- [C,C][C,B,]>[C,C] | %5
[M:4/4] [F,CF]>[F,CF] [F,CF]>[F,G,F] [F,A,F]<[F,CF] [F,CF]>[F,A,F] | %6
 [B,,B,]>[B,,B,] [B,,B,]>[B,,B,] [F,A,F]2 [F,A,]>[F,B,F] | %7
[M:35/32] [F,DF]<[F,A,F][F,A,F]>[F,B,F][F,A,F]/ [CF]2- [F,A,CF][F,A,]/[D,=B,]3/4 | %8
[M:7/8] [C,C]>C-[C,-B,-C]/<[C,B,]/- [C,B,] [F,A,C]3 |[M:1/4] (3[F,A,][F,A,][F,A,_E] | %10
[M:4/4] (5:4:5[B,,F,]2 [B,,F,]/ [B,,F,]/-[B,,F,]3/2[B,,F,]/ z2 (3[B,,F,][B,,F,][B,,F,] | %11
 (5:4:5[F,,F,]2 [F,,F,]/ [F,,F,]/-[F,,F,]3/2[F,,F,]/ z2 (3:2:2A,,2 C, | %12
 (3[F,A,F]/[F,A,F]/- [F,A,F]2 [F,A,F]3/2-[F,A,F]/4 z/4 (3[F,A,F]/[F,CF]/- [F,CF]2 z2 | %13
[M:3/4] (3:2:2C2 [C,C] z z/ [C,B,]/- [C,B,]/4 z/4 z/ z |[M:1/4] (3[F,A,][F,A,][F,A,_E] | %15
[M:4/4] (5:4:5[B,,F,]2 [B,,F,]/ [B,,F,]/-[B,,F,]3/2[B,,F,]/ z2 (3[B,,F,][B,,F,][B,,F,] | %16
 (5:4:5[F,,F,]2 [F,,F,]/ [F,,F,]/-[F,,F,]3/2[F,,F,]/ z2 (3:2:2A,,2 C, | %17
 (3[F,A,F]/[F,A,F]/- [F,A,F]2 [F,A,F]3/2-[F,A,F]/4 z/4 (3[F,A,F]/[F,CF]/- [F,CF]2 z2 | %18
[M:3/4] (3:2:2C2 [C,C] z z/ [C,B,]/- [C,B,]/4 z/4 z/ z |] %19
V:3
 x8 | x8 | x8 | x8 |[M:9/8] x9 |[M:4/4] x8 | x8 |[M:35/32] z4 z/ A4 z/4 | %8
[M:7/8] z z/ [FA]/-[FA]/4 z/4 z/ z/ [EG]/-[EG]/4 z/4 z/ z2 |[M:1/4] x2 | %10
[M:4/4] z4 [DB]2- [DB]/4 z/4 z/ z | (5:4:5[CA]2 [CA]/ [CA]/-[CA]3/2[CA]/ z2 (3:2:2[CF]2 [CFA] | %12
 z2 z z/ d/- d/4 z/4 z/ z (3FF[FG] |[M:3/4] (3F3 [EG]3 [A,CF]3 |[M:1/4] x2 | %15
[M:4/4] z4 [DB]2- [DB]/4 z/4 z/ z | (5:4:5[CA]2 [CA]/ [CA]/-[CA]3/2[CA]/ z2 (3:2:2[CF]2 [CFA] | %17
 z2 z z/ d/- d/4 z/4 z/ z (3FF[FG] |[M:3/4] (3F3 [EG]3 [A,CF]3 |] %19
V:4
 x8 | x11/2[K:bass] x5/2 | x4[K:treble] x4 | x2[K:bass] x6 |[M:9/8] x9 |[M:4/4] x8 | x8 | %7
[M:35/32] z4 z/ F,2 z2 z/4 |[M:7/8] z z/ C,/ z z/ [C,B,]/-[C,B,]/4 z/4 z/ z2 |[M:1/4] x2 | %10
[M:4/4] z4 [B,,F,]2- [B,,F,]/4 z/4 z/ z | z4 [F,,F,]2- [F,,F,]/4 z/4 z/ z | %12
 z2 z z/ [F,A,F]/- [F,A,F]/4 z/4 z/ z (3[F,A,][F,A,][D,=B,] |[M:3/4] (3C,3 [C,B,]3 [F,,F,]3 | %14
[M:1/4] x2 |[M:4/4] z4 [B,,F,]2- [B,,F,]/4 z/4 z/ z | z4 [F,,F,]2- [F,,F,]/4 z/4 z/ z | %17
 z2 z z/ [F,A,F]/- [F,A,F]/4 z/4 z/ z (3[F,A,][F,A,][D,=B,] |[M:3/4] (3C,3 [C,B,]3 [F,,F,]3 |] %19

